X: 2023
T: Ashmolean House
R: reel
M: 4/4
K: Dmajor
AF~F2 EDB,A,|D2 (3FED FA~A2|d2fd efdB|AFDE FE~E2|
AF~F2 EDB,A,|D2 (3FED FA~A2|ABde dBAF|A,CEG FDD2:|
|:defg ~a3b|afdf eB~B2|defg ~a3b|afdf ~e3z|
fd~d2 Ad~d2|edfd edBA|dBAF ABAF|A,CEG FDD2:|

